icons/svg/seamark_big/landmark_mosque.svg

<?xml version="1.0" encoding="UTF-8" standalone="no"?>
<svg
   xmlns:dc="http://purl.org/dc/elements/1.1/"
   xmlns:cc="http://creativecommons.org/ns#"
   xmlns:rdf="http://www.w3.org/1999/02/22-rdf-syntax-ns#"
   xmlns:svg="http://www.w3.org/2000/svg"
   xmlns="http://www.w3.org/2000/svg"
   xmlns:sodipodi="http://sodipodi.sourceforge.net/DTD/sodipodi-0.dtd"
   xmlns:inkscape="http://www.inkscape.org/namespaces/inkscape"
   width="1060"
   height="1060"
   id="svg2"
   version="1.1"
   inkscape:version="0.48.4 r9939"
   sodipodi:docname="landmark_mosque.svg">
  <defs
     id="defs13">
    <inkscape:path-effect
       effect="gears"
       id="path-effect3774"
       is_visible="true"
       teeth="6"
       phi="-1.2" />
    <inkscape:path-effect
       effect="bend_path"
       id="path-effect3772"
       is_visible="false"
       bendpath="m 95.790098,316.51174 c 144.429032,-206.42506 223.313032,-11.7428 339.548092,0"
       prop_scale="1.19"
       scale_y_rel="false"
       vertical="false"
       bendpath-nodetypes="cc" />
  </defs>
  <sodipodi:namedview
     pagecolor="#ffffff"
     bordercolor="#666666"
     borderopacity="1"
     objecttolerance="10"
     gridtolerance="10"
     guidetolerance="10"
     inkscape:pageopacity="0"
     inkscape:pageshadow="2"
     inkscape:window-width="1920"
     inkscape:window-height="1004"
     id="namedview11"
     showgrid="false"
     inkscape:zoom="0.40689655"
     inkscape:cx="483.12536"
     inkscape:cy="579.62856"
     inkscape:window-x="1680"
     inkscape:window-y="0"
     inkscape:window-maximized="1"
     inkscape:current-layer="svg2"
     inkscape:snap-object-midpoints="true"
     inkscape:snap-center="true" />
  <metadata
     id="metadata2975">image/svg+xmlen<rdf:RDF>
  <cc:Work
     rdf:about="">
    <dc:format>image/svg+xml</dc:format>
    <dc:type
       rdf:resource="http://purl.org/dc/dcmitype/StillImage" />
    <dc:title />
  </cc:Work>
</rdf:RDF>
</metadata>
  <path
     style="font-size:medium;font-style:normal;font-variant:normal;font-weight:normal;font-stretch:normal;text-indent:0;text-align:start;text-decoration:none;line-height:normal;letter-spacing:normal;word-spacing:normal;text-transform:none;direction:ltr;block-progression:tb;writing-mode:lr-tb;text-anchor:start;baseline-shift:baseline;opacity:0.372;color:#000000;fill:#e4e4e4;fill-opacity:1;fill-rule:nonzero;stroke:#a35151;stroke-width:0;stroke-linecap:round;stroke-linejoin:miter;stroke-miterlimit:4;stroke-opacity:1;stroke-dashoffset:0;marker:none;visibility:visible;display:inline;overflow:visible;enable-background:accumulate;font-family:Sans;-inkscape-font-specification:Sans"
     d="m 501.53125,161.78125 c -11.93237,0.17535 -21.0164,3.52037 -26.84375,5.625 -8.12478,2.93437 -16.00478,6.59913 -23.78125,10.75 -14.89335,7.94964 -29.94318,17.36296 -43.03125,30.875 l -0.0312,-0.0312 -0.0937,0.0937 c -0.16841,0.17543 -0.33509,0.35253 -0.5,0.53125 -0.0313,0.0312 -0.0625,0.0624 -0.0937,0.0937 1.26578,-1.32689 1.20719,-1.30945 -0.15625,0.125 -0.0104,0.0208 -0.0208,0.0417 -0.0312,0.0625 -15.25116,16.0953 -28.46548,35.22031 -36.65625,57.125 -16.53473,44.21922 -13.31929,94.30212 8.5,136.25 7.2828,14.00135 17.61985,28.55914 32.53125,42.9375 15.53031,14.98169 31.59846,25.13077 46.46875,31.875 0.76829,0.34845 1.57108,0.57145 2.34375,0.90625 l 0,187.875 c -7.64787,5.52291 -14.32816,12.23954 -19.75,19.96875 l -37.3125,0 c -9.66933,0.003 -19.27787,3.98514 -26.11512,10.82238 -6.83724,6.83725 -10.81913,16.44579 -10.82238,26.11512 l 0,23.03125 c 0.003,9.66933 3.98514,19.27787 10.82238,26.11512 6.83725,6.83724 16.44579,10.81913 26.11512,10.82238 l 37.28125,0 c 15.37173,21.87781 40.73765,36.15625 69.21875,36.15625 28.49011,0 53.87001,-14.26629 69.25,-36.15625 l 37.25,0 c 9.66933,-0.003 19.27787,-3.98514 26.11512,-10.82238 6.83724,-6.83725 10.81913,-16.44579 10.82238,-26.11512 l 0,-23.03125 c -0.003,-9.66933 -3.98514,-19.27787 -10.82238,-26.11512 -6.83725,-6.83724 -16.44579,-10.81913 -26.11512,-10.82238 l -37.34375,0 c -5.85029,-8.33194 -13.1231,-15.51062 -21.53125,-21.25 l 0,-175.53125 c 15.26144,-2.62336 30.17254,-7.28906 44.15625,-14.46875 7.65182,-3.92867 15.35658,-8.31398 22.59375,-13.4375 28.04343,-19.85369 49.18481,-48.73186 60.28125,-81.21875 3.11959,-9.13324 5.54818,-17.77081 6.84375,-26.96875 0.51045,-3.62389 1.29367,-10.94762 0.21875,-18.59375 -0.20662,-1.4697 -2.63889,-13.27603 -8.15625,-21.375 -5.93743,-8.7156 -11.08962,-11.88805 -17.21875,-15.15625 -6.12913,-3.2682 -13.26154,-6.30378 -24.625,-5.78125 -0.0521,-1.1e-4 -0.10417,-1.1e-4 -0.15625,0 l -0.625,0.0312 c -1.57236,0.0874 -3.13912,0.27537 -4.6875,0.5625 -0.0834,0.0101 -0.1667,0.0205 -0.25,0.0312 -0.17968,0.0301 -0.3365,0.0599 -0.53125,0.0937 l -4.6875,0.8125 c -10.73641,1.86998 -20.49001,8.75765 -25.84375,18.25 l -2.28125,4.03125 -0.0312,0 c -2.03793,3.59794 -4.40341,6.86913 -7.28125,9.90625 -19.69539,20.78551 -51.15838,21.66805 -72.34375,1.59375 -21.19237,-20.08089 -22.01102,-51.5237 -2.3125,-72.3125 2.83748,-2.99453 5.80356,-5.43786 8.9375,-7.5 l 0.0937,-0.0625 4.03125,-2.625 c 9.47284,-6.16516 15.8272,-16.88666 16.6875,-28.15625 l 0.375,-4.90625 c 0.14009,-1.83514 0.0345,-0.38505 0.0312,-0.34375 l -0.0312,0 0.8125,-10.03125 c 0.78631,-9.71902 -2.46811,-19.70279 -8.83099,-27.09139 -6.36289,-7.38859 -15.75338,-12.08812 -25.48151,-12.75236 l -10.125,-0.6875 c -0.0208,-2e-5 -0.0417,-2e-5 -0.0625,0 -1.57276,-0.10346 -3.28332,-0.15287 -5.1875,-0.125 z m 8.0625,567.09375 c 2.72368,0 6.4375,3.71382 6.4375,6.4375 0,2.72368 -3.66842,6.40625 -6.4375,6.40625 -2.76908,0 -6.40625,-3.63717 -6.40625,-6.40625 0,-2.76908 3.68257,-6.4375 6.40625,-6.4375 z"
     id="path4299"
     inkscape:connector-curvature="0"
     sodipodi:nodetypes="csscccccccsscsccccsccsccsccsccsccccsssssssccccccccccsssccccccccscccccsssss" />
  <path
     style="fill:none;stroke:#000000;stroke-width:20;stroke-miterlimit:4;stroke-opacity:1;stroke-dasharray:none"
     d="m 441.07514,238.32393 c -9.48187,10.00668 -22.68087,30.36098 -26.76449,41.28185 -11.24066,30.06117 -8.76567,69.3412 6.20581,98.12408 5.47852,10.53258 11.63615,19.39486 23.48905,30.82406 11.84204,11.42371 22.42112,18.01969 33.23325,22.9234 30.99212,14.05615 73.65204,13.42711 102.73475,-1.5049 5.67463,-2.91352 13.29231,-7.40852 16.93418,-9.98677 17.80853,-12.60777 35.69288,-36.76404 42.9699,-58.06888 4.92834,-14.42875 6.54985,-25.94277 3.63558,-25.80876 -0.13884,0.0242 -0.25184,0.0375 -0.39047,0.0616 -3.82606,6.75485 -8.48693,13.16184 -14.06448,19.0481 -37.17084,39.2282 -99.28292,40.73683 -138.7102,3.37732 -39.42733,-37.35949 -41.24626,-99.44616 -4.07543,-138.67434 5.33327,-5.62846 11.15503,-10.47862 17.37389,-14.55087 0.0122,-0.15823 0.0262,-0.30288 0.0388,-0.46139 -12.30658,-0.81034 -48.47767,18.5008 -62.61007,33.41543 z"
     id="path1873"
     inkscape:connector-curvature="0" />
  <path
     sodipodi:type="arc"
     style="color:#000000;fill:none;stroke:#000000;stroke-width:30.33652306;stroke-linecap:butt;stroke-linejoin:miter;stroke-miterlimit:4;stroke-opacity:1;stroke-dasharray:none;stroke-dashoffset:0;marker:none;visibility:visible;display:inline;overflow:visible;enable-background:accumulate"
     id="path2985"
     sodipodi:cx="510.26483"
     sodipodi:cy="737.74365"
     sodipodi:rx="69.120766"
     sodipodi:ry="69.120766"
     d="m 579.3856,737.74365 a 69.120766,69.120766 0 1 1 -138.24153,0 69.120766,69.120766 0 1 1 138.24153,0 z"
     transform="matrix(0.56558888,0,0,0.56558888,221.05031,318.17685)" />
  <path
     style="font-size:medium;font-style:normal;font-variant:normal;font-weight:normal;font-stretch:normal;text-indent:0;text-align:start;text-decoration:none;line-height:normal;letter-spacing:normal;word-spacing:normal;text-transform:none;direction:ltr;block-progression:tb;writing-mode:lr-tb;text-anchor:start;baseline-shift:baseline;color:#000000;fill:#000000;fill-opacity:1;stroke:none;stroke-width:30.00000191;marker:none;visibility:visible;display:inline;overflow:visible;enable-background:accumulate;font-family:Sans;-inkscape-font-specification:Sans"
     d="m 403.14276,723.91311 0,23.04878 67.30005,0 0,-23.04878 z m 145.69568,0 0,23.04878 67.30005,0 0,-23.04878 z"
     id="path3754"
     inkscape:connector-curvature="0"
     sodipodi:nodetypes="cccccccccc" />
  <path
     style="fill:none;stroke:#000000;stroke-width:23.20000076;stroke-linecap:butt;stroke-linejoin:miter;stroke-miterlimit:4;stroke-opacity:1;stroke-dasharray:none"
     d="m 508.72882,696.27119 0,-252.04459"
     id="path3860"
     inkscape:connector-curvature="0"
     sodipodi:nodetypes="cc" />
</svg>

<svg width="1060" height="1060" viewBox="0 0 1060 1060" fill="none" xmlns="http://www.w3.org/2000/svg">
<path opacity="0.372" d="M501.531 161.781C489.599 161.957 480.515 165.302 474.687 167.406C466.562 170.341 458.682 174.005 450.906 178.156C436.013 186.106 420.963 195.519 407.875 209.031L407.844 209L407.75 209.094C407.581 209.269 407.415 209.446 407.25 209.625C407.219 209.656 407.187 209.687 407.156 209.719C408.422 208.392 408.363 208.409 407 209.844C406.99 209.865 406.979 209.885 406.969 209.906C391.718 226.002 378.503 245.127 370.312 267.031C353.778 311.25 356.993 361.333 378.812 403.281C386.095 417.283 396.432 431.84 411.344 446.219C426.874 461.2 442.942 471.35 457.812 478.094C458.581 478.442 459.384 478.665 460.156 479V666.875C452.508 672.398 445.828 679.115 440.406 686.844H403.094C393.424 686.847 383.816 690.829 376.979 697.666C370.141 704.503 366.159 714.112 366.156 723.781V746.812C366.159 756.482 370.141 766.09 376.979 772.928C383.816 779.765 393.424 783.747 403.094 783.75H440.375C455.747 805.628 481.113 819.906 509.594 819.906C538.084 819.906 563.464 805.64 578.844 783.75H616.094C625.763 783.747 635.372 779.765 642.209 772.928C649.046 766.09 653.028 756.482 653.031 746.812V723.781C653.028 714.112 649.046 704.503 642.209 697.666C635.372 690.829 625.763 686.847 616.094 686.844H578.75C572.9 678.512 565.627 671.333 557.219 665.594V490.062C572.48 487.439 587.391 482.773 601.375 475.594C609.027 471.665 616.732 467.28 623.969 462.156C652.012 442.303 673.153 413.424 684.25 380.938C687.37 371.804 689.798 363.167 691.094 353.969C691.604 350.345 692.387 343.021 691.312 335.375C691.106 333.905 688.674 322.099 683.156 314C677.219 305.284 672.067 302.112 665.937 298.844C659.808 295.576 652.676 292.54 641.312 293.062C641.26 293.062 641.208 293.062 641.156 293.062L640.531 293.094C638.959 293.181 637.392 293.369 635.844 293.656C635.76 293.666 635.677 293.677 635.594 293.687C635.414 293.718 635.257 293.747 635.062 293.781L630.375 294.594C619.639 296.464 609.885 303.351 604.531 312.844L602.25 316.875H602.219C600.181 320.473 597.815 323.744 594.938 326.781C575.242 347.567 543.779 348.449 522.594 328.375C501.401 308.294 500.583 276.851 520.281 256.062C523.119 253.068 526.085 250.625 529.219 248.562L529.312 248.5L533.344 245.875C542.817 239.71 549.171 228.988 550.031 217.719L550.406 212.812C550.546 210.977 550.441 212.427 550.437 212.469H550.406L551.219 202.437C552.005 192.718 548.751 182.735 542.388 175.346C536.025 167.957 526.634 163.258 516.906 162.594L506.781 161.906C506.76 161.906 506.74 161.906 506.719 161.906C505.146 161.803 503.435 161.753 501.531 161.781L501.531 161.781ZM509.594 728.875C512.317 728.875 516.031 732.589 516.031 735.313C516.031 738.036 512.363 741.719 509.594 741.719C506.824 741.719 503.187 738.082 503.187 735.313C503.187 732.543 506.87 728.875 509.594 728.875Z" fill="#E4E4E4"/>
<path d="M441.075 238.324C431.593 248.331 418.394 268.685 414.31 279.606C403.07 309.667 405.545 348.947 420.516 377.73C425.995 388.262 432.152 397.125 444.005 408.554C455.847 419.978 466.426 426.574 477.239 431.477C508.231 445.534 550.891 444.904 579.973 429.972C585.648 427.059 593.266 422.564 596.908 419.986C614.716 407.378 632.6 383.222 639.877 361.917C644.806 347.488 646.427 335.974 643.513 336.108C643.374 336.132 643.261 336.146 643.122 336.17C639.296 342.924 634.636 349.331 629.058 355.218C591.887 394.446 529.775 395.955 490.348 358.595C450.92 321.236 449.102 259.149 486.272 219.921C491.606 214.292 497.427 209.442 503.646 205.37C503.658 205.212 503.672 205.067 503.685 204.908C491.378 204.098 455.207 223.409 441.075 238.324L441.075 238.324Z" stroke="black" stroke-width="20"/>
<path d="M548.745 735.437C548.745 740.571 547.735 745.655 545.771 750.399C543.806 755.143 540.927 759.453 537.297 763.084C533.666 766.715 529.356 769.596 524.613 771.561C519.869 773.526 514.785 774.537 509.651 774.537C504.516 774.537 499.432 773.526 494.688 771.561C489.945 769.596 485.635 766.715 482.005 763.084C478.374 759.453 475.495 755.143 473.531 750.399C471.566 745.655 470.556 740.571 470.557 735.437C470.556 730.302 471.566 725.218 473.531 720.474C475.495 715.73 478.374 711.42 482.005 707.789C485.635 704.158 489.945 701.277 494.688 699.312C499.432 697.347 504.516 696.336 509.651 696.336C514.785 696.336 519.869 697.347 524.613 699.312C529.356 701.277 533.666 704.158 537.297 707.789C540.927 711.42 543.806 715.73 545.771 720.474C547.735 725.218 548.745 730.302 548.745 735.437Z" stroke="black" stroke-width="17.158"/>
<path d="M403.143 723.913V746.962H470.443V723.913H403.143ZM548.838 723.913V746.962H616.138V723.913H548.838Z" fill="black"/>
<path d="M508.729 696.271V444.227" stroke="black" stroke-width="23.2"/>
</svg>
